X:51
T:51.  Visitor and a Half
C:c 2003 Harry Bolick  
R:Breakdown
O:United States
A:Hastings On Hudson, New York
M:4/4
L:1/4
Q:150
K:C
  "C"  A/2 c/2d/2 |:eB/2c/2 A/2G/2 E/2G/2 |"G" B/2G/2 B/2c "C"c/2c/2 c/2| "G" B/2A/2 G/2B G/2A/2 B/2 | "C" c/2A/2 G/2 c A/2c/2 d/2 |
eB/2c/2 A/2G/2 E/2G/2 | "G" B/2G/2 B/2"C"c  c/2c/2 c/2|"G" B/2B/2 B/2B/2 B/2G/2 A/2B/2 |[1 "C" (c2c/2) A/2 c/2d/2:|[2 (c2c/2) D/2 E/2G/2 ||
"Am" A/2 E/2G/2A D/2E/2 G/2 |A/2 E/2G/2A A/2B/2 A/2|"C" c>d "G"(B/2A/2) (G/2E/2)  |[1 "Am" A2A/2D/2 E/2G/2 :|[2 "Am" A4 :|
